packages/foundations/assets/icons/functional/images/food/beverage_28.svg

<svg width="28" height="28" viewBox="0 0 28 28" fill="none" xmlns="http://www.w3.org/2000/svg">
<g clip-path="url(#clip0_185_1060)">
<path fill-rule="evenodd" clip-rule="evenodd" d="M13.9178 14C14.9022 14 15.6678 14.7929 15.6678 15.75C15.6678 15.8321 15.6678 15.9415 15.6405 16.0234L14.1913 24.7734C14.0545 25.621 13.3163 26.25 12.4686 26.25H8.69512C7.82012 26.25 7.10927 25.621 6.97251 24.7734L5.49594 16.0234C5.30449 14.9571 6.15219 14 7.21864 14H13.9178ZM13.9178 15.75H7.21864L7.82012 19.25H10.2812C10.7735 19.25 11.1562 19.6328 11.1562 20.125C11.1562 20.5898 10.7735 21 10.2812 21H8.09364L8.69512 24.5H12.4686L13.9178 15.75ZM12.7695 9.67969L14.1094 7.0273C14.4921 6.28906 14.6562 5.46875 14.6562 4.67583V3.5C14.6562 2.51562 15.4492 1.75 16.4062 1.75H18.1562C19.1132 1.75 19.9062 2.51562 19.9062 3.5V4.67583C19.9062 5.46875 20.0702 6.28906 20.4531 7.0273L21.7929 9.67969C22.2851 10.6367 22.5312 11.7304 22.5312 12.7969V24.5C22.5312 25.4571 21.7382 26.25 20.7812 26.25H17.2812C16.789 26.25 16.4062 25.8398 16.4062 25.375C16.4062 24.8828 16.789 24.5 17.2812 24.5H20.7812V12.7969C20.7812 12.004 20.5898 11.1835 20.2344 10.4727L18.8945 7.79292C18.4023 6.83594 18.1562 5.74219 18.1562 4.67583V3.5H16.4062V4.67583C16.4062 5.74219 16.1601 6.83594 15.6679 7.79292L14.3281 10.4727C14.1913 10.7734 13.8632 10.9375 13.5625 10.9375C13.0702 10.9375 12.6875 10.5547 12.6875 10.0625C12.6875 9.92583 12.7148 9.81645 12.7695 9.67969Z" fill="#1A1C1F"/>
</g>
<defs>
<clipPath id="clip0_185_1060">
<rect width="28" height="28" fill="white"/>
</clipPath>
</defs>
</svg>

<svg xmlns="http://www.w3.org/2000/svg" width="28" height="28" fill="none"><g clip-path="url(#a)"><path fill="#1A1C1F" fill-rule="evenodd" d="M13.918 14c.984 0 1.75.793 1.75 1.75 0 .082 0 .191-.027.273l-1.45 8.75a1.76 1.76 0 0 1-1.722 1.477H8.695a1.74 1.74 0 0 1-1.722-1.477l-1.477-8.75C5.304 14.957 6.152 14 7.219 14zm0 1.75h-6.7l.602 3.5h2.461c.492 0 .875.383.875.875a.88.88 0 0 1-.875.875H8.094l.601 3.5h3.774zM12.77 9.68l1.34-2.653c.382-.738.546-1.558.546-2.351V3.5c0-.984.793-1.75 1.75-1.75h1.75c.957 0 1.75.766 1.75 1.75v1.176c0 .793.164 1.613.547 2.351l1.34 2.653a6.9 6.9 0 0 1 .738 3.117V24.5c0 .957-.793 1.75-1.75 1.75h-3.5a.88.88 0 0 1-.875-.875c0-.492.383-.875.875-.875h3.5V12.797c0-.793-.191-1.614-.547-2.324l-1.34-2.68a6.9 6.9 0 0 1-.738-3.117V3.5h-1.75v1.176c0 1.066-.246 2.16-.738 3.117l-1.34 2.68c-.137.3-.465.464-.765.464a.864.864 0 0 1-.876-.874c0-.137.028-.247.083-.383" clip-rule="evenodd"/></g><defs><clipPath id="a"><path fill="#fff" d="M0 0h28v28H0z"/></clipPath></defs></svg>
